src/images/logo.svg

<?xml version="1.0" encoding="UTF-8"?>
<svg width="140px" height="25px" viewBox="0 0 140 25" version="1.1" xmlns="http://www.w3.org/2000/svg" xmlns:xlink="http://www.w3.org/1999/xlink">
    <!-- Generator: Sketch 55.2 (78181) - https://sketchapp.com -->
    <title>produkt / ETN / sekvens logo positiv 30px</title>
    <desc>Created with Sketch.</desc>
    <g id="Interaksjonsdesign-2.0-(current)" stroke="none" stroke-width="1" fill="none" fill-rule="evenodd">
        <g id="Suksess!" transform="translate(-240.000000, -55.000000)" fill="#0A0D0D">
            <g id="Color-/-Primary-/-1-/-100%">
                <g>
                    <g id="header-subpages">
                        <g id="header-burger" transform="translate(240.000000, 36.000000)">
                            <g id="produkt-/-ETN-/-sekvens-logo-positiv-30px" transform="translate(0.000000, 19.416667)">
                                <g id="sekvens-logo-positiv">
                                    <path d="M6.39488462e-14,19.3936 L2.722,18.3726 C3.334,20.5836 5.104,21.7756 7.451,21.7756 C9.561,21.7756 11.092,20.9586 11.092,19.3256 C11.092,17.6926 9.833,17.2156 6.669,16.6036 C3.811,16.0586 1.123,15.0036 1.123,11.6356 C1.123,8.5736 3.811,6.6676 6.975,6.6676 C10.071,6.6676 12.044,7.9606 13.338,10.4796 L10.99,11.9766 C9.935,10.0716 8.71,9.2546 6.873,9.2546 C5.41,9.2546 3.913,9.8676 3.913,11.5346 C3.913,12.9976 5.342,13.6776 7.894,14.1876 C11.092,14.8336 14.052,15.7526 14.052,19.0866 C14.052,22.3876 10.99,24.3616 7.451,24.3616 C4.015,24.3616 1.055,22.6606 6.39488462e-14,19.3936" id="Fill-6"></path>
                                    <path d="M17.9547,15.5147 C17.9547,10.6837 21.0167,6.6677 26.1547,6.6677 C31.4627,6.6677 34.2867,10.4457 34.2867,14.9367 L34.2867,16.1267 L20.8807,16.1267 C21.0507,19.5297 23.1267,21.7757 26.1547,21.7757 C28.7407,21.7757 30.5097,20.5167 31.6667,18.3727 L33.9467,19.5637 C32.0747,23.1707 29.3527,24.3617 26.1547,24.3617 C21.1527,24.3617 17.9547,20.5167 17.9547,15.5147 L17.9547,15.5147 Z M31.2577,13.5407 C30.7477,10.8197 28.9447,9.2547 26.1547,9.2547 C23.3987,9.2547 21.6637,10.9557 21.0847,13.5407 L31.2577,13.5407 Z" id="Fill-8"></path>
                                    <polygon id="Fill-11" points="39.3801 0 42.2381 0 42.2381 14.119 49.5531 6.94 53.2961 6.94 45.3001 14.801 54.0781 24.089 50.3361 24.089 42.2381 15.48 42.2381 24.089 39.3801 24.089"></polygon>
                                    <polygon id="Fill-12" points="55.8594 6.9404 58.9554 6.9404 64.4674 20.6864 69.9794 6.9404 73.0754 6.9404 65.8964 24.0884 63.0384 24.0884"></polygon>
                                    <path d="M75.571,15.5147 C75.571,10.6837 78.633,6.6677 83.771,6.6677 C89.079,6.6677 91.903,10.4457 91.903,14.9367 L91.903,16.1267 L78.497,16.1267 C78.667,19.5297 80.743,21.7757 83.771,21.7757 C86.357,21.7757 88.126,20.5167 89.283,18.3727 L91.563,19.5637 C89.691,23.1707 86.969,24.3617 83.771,24.3617 C78.769,24.3617 75.571,20.5167 75.571,15.5147 L75.571,15.5147 Z M88.874,13.5407 C88.364,10.8197 86.561,9.2547 83.771,9.2547 C81.015,9.2547 79.28,10.9557 78.701,13.5407 L88.874,13.5407 Z" id="Fill-13"></path>
                                    <path d="M96.8301,6.9404 L99.6881,6.9404 L99.6881,10.1054 C100.9131,8.1314 103.0571,6.6684 105.5061,6.6684 C109.0791,6.6684 110.7461,8.8454 110.7461,12.1464 L110.7461,24.0884 L107.8881,24.0884 L107.8881,12.7584 C107.8881,10.3774 106.7651,9.2544 104.7241,9.2544 C102.0361,9.2544 99.6881,12.1794 99.6881,17.1814 L99.6881,24.0884 L96.8301,24.0884 L96.8301,6.9404 Z" id="Fill-15"></path>
                                    <path d="M115.4235,19.3936 L118.1455,18.3726 C118.7575,20.5836 120.5275,21.7756 122.8745,21.7756 C124.9845,21.7756 126.5155,20.9586 126.5155,19.3256 C126.5155,17.6926 125.2565,17.2156 122.0925,16.6036 C119.2345,16.0586 116.5465,15.0036 116.5465,11.6356 C116.5465,8.5736 119.2345,6.6676 122.3985,6.6676 C125.4945,6.6676 127.4675,7.9606 128.7615,10.4796 L126.4135,11.9766 C125.3585,10.0716 124.1335,9.2546 122.2965,9.2546 C120.8335,9.2546 119.3365,9.8676 119.3365,11.5346 C119.3365,12.9976 120.7655,13.6776 123.3175,14.1876 C126.5155,14.8336 129.4755,15.7526 129.4755,19.0866 C129.4755,22.3876 126.4135,24.3616 122.8745,24.3616 C119.4385,24.3616 116.4785,22.6606 115.4235,19.3936" id="Fill-17"></path>
                                    <path d="M135.7854,22.084 C135.7854,20.86 136.6694,19.977 137.8934,19.977 C139.1164,19.977 140.0004,20.86 140.0004,22.084 C140.0004,23.308 139.1164,24.19 137.8934,24.19 C136.6694,24.19 135.7854,23.308 135.7854,22.084" id="Fill-19"></path>
                                </g>
                            </g>
                        </g>
                    </g>
                </g>
            </g>
        </g>
    </g>
</svg>

<svg height="25" viewBox="0 0 140 25" width="140" xmlns="http://www.w3.org/2000/svg"><g fill="#0a0d0d" fill-rule="evenodd" transform="translate(0 .416667)"><path d="m0 19.3936 2.722-1.021c.612 2.211 2.382 3.403 4.729 3.403 2.11 0 3.641-.817 3.641-2.45s-1.259-2.11-4.423-2.722c-2.858-.545-5.546-1.6-5.546-4.968 0-3.062 2.688-4.968 5.852-4.968 3.096 0 5.069 1.293 6.363 3.812l-2.348 1.497c-1.055-1.905-2.28-2.722-4.117-2.722-1.463 0-2.96.613-2.96 2.28 0 1.463 1.429 2.143 3.981 2.653 3.198.646 6.158 1.565 6.158 4.899 0 3.301-3.062 5.275-6.601 5.275-3.436 0-6.396-1.701-7.451-4.968"/><path d="m17.9547 15.5147c0-4.831 3.062-8.847 8.2-8.847 5.308 0 8.132 3.778 8.132 8.269v1.19h-13.406c.17 3.403 2.246 5.649 5.274 5.649 2.586 0 4.355-1.259 5.512-3.403l2.28 1.191c-1.872 3.607-4.594 4.798-7.792 4.798-5.002 0-8.2-3.845-8.2-8.847zm13.303-1.974c-.51-2.721-2.313-4.286-5.103-4.286-2.756 0-4.491 1.701-5.07 4.286z"/><path d="m39.3801 0h2.858v14.119l7.315-7.179h3.743l-7.996 7.861 8.778 9.288h-3.742l-8.098-8.609v8.609h-2.858z"/><path d="m55.8594 6.9404h3.096l5.512 13.746 5.512-13.746h3.096l-7.179 17.148h-2.858z"/><path d="m75.571 15.5147c0-4.831 3.062-8.847 8.2-8.847 5.308 0 8.132 3.778 8.132 8.269v1.19h-13.406c.17 3.403 2.246 5.649 5.274 5.649 2.586 0 4.355-1.259 5.512-3.403l2.28 1.191c-1.872 3.607-4.594 4.798-7.792 4.798-5.002 0-8.2-3.845-8.2-8.847zm13.303-1.974c-.51-2.721-2.313-4.286-5.103-4.286-2.756 0-4.491 1.701-5.07 4.286z"/><path d="m96.8301 6.9404h2.858v3.165c1.225-1.974 3.369-3.437 5.818-3.437 3.573 0 5.24 2.177 5.24 5.478v11.942h-2.858v-11.33c0-2.381-1.123-3.504-3.164-3.504-2.688 0-5.036 2.925-5.036 7.927v6.907h-2.858z"/><path d="m115.4235 19.3936 2.722-1.021c.612 2.211 2.382 3.403 4.729 3.403 2.11 0 3.641-.817 3.641-2.45s-1.259-2.11-4.423-2.722c-2.858-.545-5.546-1.6-5.546-4.968 0-3.062 2.688-4.968 5.852-4.968 3.096 0 5.069 1.293 6.363 3.812l-2.348 1.497c-1.055-1.905-2.28-2.722-4.117-2.722-1.463 0-2.96.613-2.96 2.28 0 1.463 1.429 2.143 3.981 2.653 3.198.646 6.158 1.565 6.158 4.899 0 3.301-3.062 5.275-6.601 5.275-3.436 0-6.396-1.701-7.451-4.968"/><path d="m135.7854 22.084c0-1.224.884-2.107 2.108-2.107 1.223 0 2.107.883 2.107 2.107s-.884 2.106-2.107 2.106c-1.224 0-2.108-.882-2.108-2.106"/></g></svg>
